packages/foundations/assets/icons/functional/images/audio & video/volume_disabled_24.svg

<svg width="24" height="24" viewBox="0 0 24 24" fill="none" xmlns="http://www.w3.org/2000/svg">
<g clip-path="url(#clip0_184_399)">
<path fill-rule="evenodd" clip-rule="evenodd" d="M19.6856 3.63542C19.9344 3.63595 20.1728 3.73508 20.3486 3.9111C20.5244 4.08711 20.6233 4.32564 20.6236 4.57442C20.6236 4.87942 20.4836 5.11442 20.2956 5.30142L5.44157 20.1084C5.26861 20.2686 5.04323 20.3603 4.80757 20.3664C4.29157 20.3664 3.86857 19.9214 3.86857 19.4044C3.86857 19.1234 3.98657 18.8884 4.19757 18.6774L6.82557 16.0254L6.61457 15.8854H4.92457C4.59732 15.8871 4.27298 15.8239 3.97033 15.6994C3.66769 15.5749 3.39275 15.3916 3.16144 15.1601C2.93013 14.9286 2.74705 14.6536 2.62279 14.3508C2.49854 14.0481 2.43558 13.7237 2.43757 13.3964V10.4164C2.43382 10.0887 2.49558 9.76361 2.61922 9.46012C2.74287 9.15663 2.9259 8.88091 3.15758 8.64914C3.38925 8.41737 3.6649 8.23423 3.96834 8.11046C4.27178 7.9867 4.59688 7.92481 4.92457 7.92842H6.61457L10.8616 5.08842C11.0286 4.97803 11.2254 4.92117 11.4256 4.92542C11.9886 4.92542 12.4106 5.39442 12.4106 5.93442V10.4634L14.1706 8.72642C14.0083 8.54563 13.9167 8.31234 13.9126 8.06942C13.9126 7.52942 14.3586 7.10742 14.8746 7.10742C15.1326 7.10742 15.4146 7.27142 15.5316 7.36542L16.6346 6.26242L16.3066 6.05142C16.1599 5.96352 16.0377 5.83997 15.9515 5.69224C15.8654 5.54451 15.8179 5.3774 15.8136 5.20642C15.8136 4.66642 16.2596 4.26842 16.7756 4.26842C16.9396 4.26842 17.1036 4.29142 17.2456 4.38542L18.0196 4.87842L19.0286 3.89242C19.1139 3.80575 19.2164 3.73799 19.3296 3.69354C19.4428 3.64909 19.5641 3.62995 19.6856 3.63542ZM10.4156 7.78942L7.48357 9.73542C7.31894 9.85301 7.12282 9.9185 6.92057 9.92342H4.92457C4.86123 9.92129 4.7981 9.93183 4.73888 9.95441C4.67967 9.977 4.62556 10.0112 4.57974 10.055C4.53391 10.0987 4.49729 10.1512 4.47201 10.2094C4.44674 10.2675 4.43333 10.3301 4.43257 10.3934V13.3964C4.43257 13.6544 4.64257 13.8894 4.92457 13.8894H6.91957C7.10757 13.8894 7.31857 13.9594 7.48257 14.0774L8.25757 14.5934L10.4166 12.4574V7.78742L10.4156 7.78942ZM10.0646 18.2084L10.8616 18.7484C11.0026 18.8654 11.2376 18.9114 11.4256 18.9114C11.9886 18.9114 12.4106 18.4664 12.4106 17.9024V15.8614L10.0646 18.2084ZM15.7896 12.5284C15.6256 13.4914 15.1326 14.3364 14.3346 14.8984C14.2072 14.9899 14.1028 15.1096 14.0295 15.2483C13.9563 15.3869 13.9163 15.5407 13.9126 15.6974C13.9126 16.2134 14.3346 16.6594 14.8746 16.6594C15.0626 16.6594 15.2506 16.5894 15.4146 16.4944C16.9396 15.4624 17.7606 13.7024 17.7606 11.8724C17.7575 11.4631 17.7184 11.0549 17.6436 10.6524L15.7896 12.5294V12.5284ZM20.5296 7.78842C21.2028 9.05303 21.5574 10.4628 21.5626 11.8954C21.5614 13.4121 21.1619 14.9018 20.4041 16.2155C19.6463 17.5293 18.5568 18.621 17.2446 19.3814C17.1052 19.4735 16.9416 19.5222 16.7746 19.5214C16.5212 19.5161 16.2797 19.4129 16.1006 19.2337C15.9215 19.0544 15.8187 18.8128 15.8136 18.5594C15.8136 18.2314 16.0016 17.9024 16.3066 17.7394C18.3716 16.5184 19.6616 14.2894 19.6616 11.8954C19.6616 10.9574 19.4736 10.0414 19.0986 9.19742L20.5296 7.78842Z" fill="#1A1C1F"/>
</g>
<defs>
<clipPath id="clip0_184_399">
<rect width="24" height="24" fill="white"/>
</clipPath>
</defs>
</svg>

<svg xmlns="http://www.w3.org/2000/svg" width="24" height="24" fill="none"><g clip-path="url(#a)"><path fill="#1A1C1F" fill-rule="evenodd" d="M19.686 3.635a.94.94 0 0 1 .938.94c0 .304-.14.54-.328.726L5.442 20.108a.97.97 0 0 1-.634.258c-.516 0-.94-.445-.94-.962 0-.28.119-.516.33-.727l2.628-2.652-.211-.14h-1.69a2.474 2.474 0 0 1-2.487-2.489v-2.98a2.46 2.46 0 0 1 2.487-2.488h1.69l4.247-2.84a1 1 0 0 1 .564-.163c.563 0 .985.47.985 1.01v4.528l1.76-1.737a1 1 0 0 1-.258-.657c0-.54.446-.962.962-.962.258 0 .54.164.657.258l1.103-1.103-.328-.21a1.01 1.01 0 0 1-.493-.846c0-.54.446-.938.962-.938.164 0 .328.023.47.117l.774.493 1.009-.986a.87.87 0 0 1 .657-.257m-9.27 4.154L7.484 9.735a1 1 0 0 1-.563.188H4.925a.476.476 0 0 0-.492.47v3.003c0 .258.21.493.492.493H6.92c.188 0 .399.07.563.188l.775.516 2.159-2.136v-4.67zm-.351 10.42.797.54c.14.116.376.162.564.162.563 0 .985-.445.985-1.009v-2.04zm5.725-5.68c-.164.962-.657 1.807-1.455 2.37a1.01 1.01 0 0 0-.422.798c0 .516.422.962.962.962.188 0 .376-.07.54-.165 1.525-1.032 2.346-2.792 2.346-4.622a7 7 0 0 0-.117-1.22zm4.74-4.74a8.8 8.8 0 0 1 1.033 4.106 8.66 8.66 0 0 1-4.318 7.486.85.85 0 0 1-.47.14.98.98 0 0 1-.961-.962c0-.328.188-.657.493-.82 2.065-1.22 3.355-3.45 3.355-5.844 0-.938-.188-1.854-.563-2.698z" clip-rule="evenodd"/></g><defs><clipPath id="a"><path fill="#fff" d="M0 0h24v24H0z"/></clipPath></defs></svg>
